icons/svg/fire.svg

﻿<?xml version="1.0" encoding="utf-8"?>
<!DOCTYPE svg PUBLIC "-//W3C//DTD SVG 1.1//EN" "http://www.w3.org/Graphics/SVG/1.1/DTD/svg11.dtd">
<svg xmlns="http://www.w3.org/2000/svg" xmlns:xlink="http://www.w3.org/1999/xlink" version="1.1" baseProfile="full" width="24" height="24" viewBox="0 0 24.00 24.00" enable-background="new 0 0 24.00 24.00" xml:space="preserve">
	<path fill="#000000" fill-opacity="1" stroke-width="0.2" stroke-linejoin="round" d="M 11.7116,18.9981C 9.9306,18.9981 8.48758,17.5931 8.48758,15.8601C 8.48758,14.2371 9.53259,13.0971 11.3006,12.7391C 13.0676,12.3821 14.8996,11.5332 15.9166,10.1631C 16.3076,11.4541 16.5116,12.8111 16.5116,14.1981C 16.5116,16.8447 14.3586,18.9981 11.7116,18.9981 Z M 13.4996,0.667067C 13.4996,0.667067 14.2396,3.31507 14.2396,5.46507C 14.2396,7.52707 12.8876,9.19807 10.8266,9.19807C 8.76358,9.19807 7.19958,7.52707 7.19958,5.46507L 7.22659,5.10407C 5.21259,7.51174 3.9996,10.6131 3.9996,13.9981C 3.9996,18.4161 7.5816,21.9981 11.9996,21.9981C 16.4176,21.9981 19.9996,18.4161 19.9996,13.9981C 19.9996,8.60407 17.4066,3.79507 13.4996,0.667067 Z "/>
</svg>

<svg xmlns="http://www.w3.org/2000/svg" version="1.1" baseProfile="full" width="24" height="24" viewBox="0 0 24.00 24.00" xml:space="preserve"><path fill="#000" fill-opacity="1" stroke-width=".2" stroke-linejoin="round" d="M11.712 18.998c-1.78 0-3.224-1.405-3.224-3.138 0-1.623 1.045-2.763 2.813-3.12 1.768-.358 3.6-1.207 4.617-2.577.39 1.29.595 2.648.595 4.035 0 2.647-2.153 4.8-4.8 4.8zM13.5.668s.74 2.647.74 4.797c0 2.062-1.352 3.733-3.413 3.733-2.063 0-3.627-1.67-3.627-3.733l.027-.36C5.213 7.51 4 10.612 4 13.997c0 4.418 3.582 8 8 8s8-3.582 8-8c0-5.394-2.593-10.203-6.5-13.33z"/></svg>
